SVG/113-stage-reply.svg

<?xml version="1.0" encoding="UTF-8" standalone="no"?>
<svg width="14px" height="15px" viewBox="0 0 14 15" version="1.1" xmlns="http://www.w3.org/2000/svg" xmlns:xlink="http://www.w3.org/1999/xlink">
    <!-- Generator: Sketch 3.8.2 (29753) - http://www.bohemiancoding.com/sketch -->
    <title>113-stage-reply</title>
    <desc>Created with Sketch.</desc>
    <defs></defs>
    <g id="Page-1" stroke="none" stroke-width="1" fill="none" fill-rule="evenodd">
        <g id="113-stage-reply">
            <g id="Layer_2">
                <g id="Icons">
                    <path d="M13,0 L1,0 C0.44771525,-3.38176876e-17 6.76353751e-17,0.44771525 0,1 L0,11 C6.76353751e-17,11.5522847 0.44771525,12 1,12 L3,12 C2.89742408,12.4392925 2.75344707,12.8678752 2.57,13.28 C2.42915771,13.4847881 2.42915771,13.7552119 2.57,13.96 C2.57,13.96 2.68,14.1 2.76,14.11 C2.85985898,14.1175106 2.96014102,14.1175106 3.06,14.11 C4.49499865,13.6622729 5.831988,12.9462709 7,12 L13,12 C13.5522847,12 14,11.5522847 14,11 L14,1 C14,0.44771525 13.5522847,3.38176876e-17 13,0 L13,0 Z M13,11 L6.64,11 L6.38,11.2 C6.08,11.43 5.69,11.71 5.26,12 C4.80795345,12.2971373 4.33694713,12.564375 3.85,12.8 C3.93742057,12.538213 4.00757123,12.2709724 4.06,12 C4.13213443,11.671047 4.17563043,11.3364624 4.19,11 L1,11 L1,1 L13,1 L13,11 Z" id="Shape" fill="#000000"></path>
                    <path d="M10.65,7.14 L10.65,9.14 C10.65,9.39957383 10.4395738,9.61 10.18,9.61 C9.92042617,9.61 9.71,9.39957383 9.71,9.14 L9.71,7.14 C9.71,6.25082155 8.98917845,5.53 8.1,5.53 L4.94,5.53 L6.24,6.84 C6.33185381,6.92515716 6.38405883,7.0447448 6.38405883,7.17 C6.38405883,7.2952552 6.33185381,7.41484284 6.24,7.5 C6.15484284,7.59185381 6.0352552,7.64405883 5.91,7.64405883 C5.7847448,7.64405883 5.66515716,7.59185381 5.58,7.5 L3.15,5.07 L5.55,2.67 C5.6369303,2.57762011 5.75815,2.52523801 5.885,2.52523801 C6.01185,2.52523801 6.1330697,2.57762011 6.22,2.67 C6.31185381,2.75515716 6.36405883,2.8747448 6.36405883,3 C6.36405883,3.1252552 6.31185381,3.24484284 6.22,3.33 L5,4.6 L8.1,4.6 C9.50443009,4.5999892 10.6444924,5.7355807 10.65,7.14 L10.65,7.14 Z" id="Shape" fill="#231F20"></path>
                </g>
            </g>
        </g>
    </g>
</svg>

<svg xmlns="http://www.w3.org/2000/svg" viewBox="0 0 14 14.13"><defs><style>.cls-1{fill:#231f20;}</style></defs><title>Asset 16</title><g id="Layer_2" data-name="Layer 2"><g id="Icons"><path d="M13,0H1A1,1,0,0,0,0,1V11a1,1,0,0,0,1,1H3a7.14,7.14,0,0,1-.43,1.28.6.6,0,0,0,0,.68s.11.14.19.15a2,2,0,0,0,.3,0A11.88,11.88,0,0,0,7,12h6a1,1,0,0,0,1-1V1A1,1,0,0,0,13,0Zm0,11H6.64l-.26.2c-.3.23-.69.51-1.12.8a12.4,12.4,0,0,1-1.41.8,6.31,6.31,0,0,0,.21-.8,5.83,5.83,0,0,0,.13-1H1V1H13Z"/><path class="cls-1" d="M10.65,7.14v2a.47.47,0,0,1-.47.47.47.47,0,0,1-.47-.47v-2A1.61,1.61,0,0,0,8.1,5.53H4.94l1.3,1.31a.45.45,0,0,1,0,.66.45.45,0,0,1-.66,0L3.15,5.07l2.4-2.4a.46.46,0,0,1,.67,0,.45.45,0,0,1,0,.66L5,4.6H8.1A2.55,2.55,0,0,1,10.65,7.14Z"/></g></g></svg>
